public/sun.svg

<svg width="31" height="30" viewBox="0 0 31 30" fill="none" xmlns="http://www.w3.org/2000/svg">
<rect x="0.5" y="0.5" width="30" height="29" rx="3.5" fill="white" stroke="#B8B8B8"/>
<path d="M7.75 14.25C7.33579 14.25 7 14.5858 7 15C7 15.4142 7.33579 15.75 7.75 15.75V14.25ZM9.58333 15.75C9.99755 15.75 10.3333 15.4142 10.3333 15C10.3333 14.5858 9.99755 14.25 9.58333 14.25V15.75ZM9.05306 20.8863C8.76017 21.1792 8.76017 21.6541 9.05306 21.947C9.34595 22.2399 9.82083 22.2399 10.1137 21.947L9.05306 20.8863ZM11.9471 20.1137C12.2399 19.8208 12.2399 19.3459 11.9471 19.053C11.6542 18.7601 11.1793 18.7601 10.8864 19.053L11.9471 20.1137ZM16.75 21.4167C16.75 21.0025 16.4142 20.6667 16 20.6667C15.5858 20.6667 15.25 21.0025 15.25 21.4167H16.75ZM15.25 23.25C15.25 23.6642 15.5858 24 16 24C16.4142 24 16.75 23.6642 16.75 23.25H15.25ZM21.1137 19.053C20.8208 18.7601 20.3459 18.7601 20.053 19.053C19.7601 19.3459 19.7601 19.8208 20.053 20.1137L21.1137 19.053ZM21.8863 21.947C22.1792 22.2399 22.6541 22.2399 22.947 21.947C23.2399 21.6541 23.2399 21.1792 22.947 20.8863L21.8863 21.947ZM10.1137 8.053C9.82077 7.76011 9.3459 7.76011 9.053 8.053C8.76011 8.3459 8.76011 8.82077 9.053 9.11366L10.1137 8.053ZM10.8863 10.947C11.1792 11.2399 11.6541 11.2399 11.947 10.947C12.2399 10.6541 12.2399 10.1792 11.947 9.88634L10.8863 10.947ZM22.4167 14.25C22.0025 14.25 21.6667 14.5858 21.6667 15C21.6667 15.4142 22.0025 15.75 22.4167 15.75V14.25ZM24.25 15.75C24.6642 15.75 25 15.4142 25 15C25 14.5858 24.6642 14.25 24.25 14.25V15.75ZM20.0529 9.88634C19.7601 10.1792 19.7601 10.6541 20.0529 10.947C20.3458 11.2399 20.8207 11.2399 21.1136 10.947L20.0529 9.88634ZM22.9469 9.11366C23.2398 8.82077 23.2398 8.3459 22.9469 8.053C22.654 7.76011 22.1792 7.76011 21.8863 8.053L22.9469 9.11366ZM16.75 6.75C16.75 6.33579 16.4142 6 16 6C15.5858 6 15.25 6.33579 15.25 6.75H16.75ZM15.25 8.58333C15.25 8.99755 15.5858 9.33333 16 9.33333C16.4142 9.33333 16.75 8.99755 16.75 8.58333H15.25ZM18 15C18 16.1046 17.1046 17 16 17V18.5C17.933 18.5 19.5 16.933 19.5 15H18ZM16 17C14.8954 17 14 16.1046 14 15H12.5C12.5 16.933 14.067 18.5 16 18.5V17ZM14 15C14 13.8954 14.8954 13 16 13V11.5C14.067 11.5 12.5 13.067 12.5 15H14ZM16 13C17.1046 13 18 13.8954 18 15H19.5C19.5 13.067 17.933 11.5 16 11.5V13ZM7.75 15.75H9.58333V14.25H7.75V15.75ZM10.1137 21.947L11.9471 20.1137L10.8864 19.053L9.05306 20.8863L10.1137 21.947ZM15.25 21.4167V23.25H16.75V21.4167H15.25ZM20.053 20.1137L21.8863 21.947L22.947 20.8863L21.1137 19.053L20.053 20.1137ZM9.053 9.11366L10.8863 10.947L11.947 9.88634L10.1137 8.053L9.053 9.11366ZM22.4167 15.75H24.25V14.25H22.4167V15.75ZM21.1136 10.947L22.9469 9.11366L21.8863 8.053L20.0529 9.88634L21.1136 10.947ZM15.25 6.75V8.58333H16.75V6.75H15.25Z" fill="black"/>
</svg>

<svg width="31" height="30" fill="none" xmlns="http://www.w3.org/2000/svg"><rect x=".5" y=".5" width="30" height="29" rx="3.5" fill="#fff" stroke="#B8B8B8"/><path d="M7.75 14.25a.75.75 0 0 0 0 1.5v-1.5Zm1.833 1.5a.75.75 0 0 0 0-1.5v1.5Zm-.53 5.136a.75.75 0 0 0 1.06 1.061l-1.06-1.06Zm2.894-.772a.75.75 0 0 0-1.06-1.061l1.06 1.06Zm4.803 1.303a.75.75 0 0 0-1.5 0h1.5Zm-1.5 1.833a.75.75 0 0 0 1.5 0h-1.5Zm5.864-4.197a.75.75 0 0 0-1.061 1.06l1.06-1.06Zm.772 2.894a.75.75 0 0 0 1.061-1.06l-1.06 1.06ZM10.114 8.053a.75.75 0 0 0-1.061 1.06l1.06-1.06Zm.772 2.894a.75.75 0 0 0 1.061-1.06l-1.06 1.06Zm11.53 3.303a.75.75 0 0 0 0 1.5v-1.5Zm1.834 1.5a.75.75 0 0 0 0-1.5v1.5Zm-4.197-5.864a.75.75 0 0 0 1.06 1.061l-1.06-1.06Zm2.894-.772a.75.75 0 0 0-1.06-1.061l1.06 1.06ZM16.75 6.75a.75.75 0 0 0-1.5 0h1.5Zm-1.5 1.833a.75.75 0 0 0 1.5 0h-1.5ZM18 15a2 2 0 0 1-2 2v1.5a3.5 3.5 0 0 0 3.5-3.5H18Zm-2 2a2 2 0 0 1-2-2h-1.5a3.5 3.5 0 0 0 3.5 3.5V17Zm-2-2a2 2 0 0 1 2-2v-1.5a3.5 3.5 0 0 0-3.5 3.5H14Zm2-2a2 2 0 0 1 2 2h1.5a3.5 3.5 0 0 0-3.5-3.5V13Zm-8.25 2.75h1.833v-1.5H7.75v1.5Zm2.364 6.197 1.833-1.833-1.06-1.061-1.834 1.833 1.06 1.061Zm5.136-.53v1.833h1.5v-1.833h-1.5Zm4.803-1.303 1.833 1.833 1.061-1.06-1.833-1.834-1.061 1.06Zm-11-11 1.833 1.833 1.061-1.06-1.833-1.834-1.061 1.06Zm13.364 6.636h1.833v-1.5h-1.833v1.5Zm-1.303-4.803 1.833-1.833-1.06-1.061-1.834 1.833 1.06 1.061ZM15.25 6.75v1.833h1.5V6.75h-1.5Z" fill="#000"/></svg>
